!!!!SEGMENT: pl-wtm--1346-fp-4571_stojowski-zygmunt--deux-caprices-etudes-op-2-no-2-toccatina.krn
!!!cenid: 18xx:4447
!!!COM: Stojowski, Zygmunt
!!!COM-rismID: pe41019736
!!!CDT: 1870-1946
!!!CNT: Polish
!!!OTL: Deux Caprices-Etudes Op. 2/No. 2. Toccatina
!!!PDT: 1892
!!!AGN: Secular; Etude
!!!YEC: Copyright 2022 Narodowy Instytut Fryderyka Chopina (https://polishscores.org)
!!!YEM: License CC-BY-4.0 (https://creativecommons.org/licenses/by/4.0)
!!!SMS-siglum: PL-Wtm
!!!SMS-shelfmark: 1346 fp 4571
!!!SMS-variant:
!!!SMS-altvar:
!!!SMS-shelfwork: W
!!!NIFC-rismSourceID: 1001214665
!!!NIFC-rismChildID: 1001214665
!!!NIFC-islandoraID: pl-wtm:82995
!!!URL-pdf-islandora: https://repozytorium.nifc.pl/islandora/object/pl-wtm%3A82995/datastream/PDF/view
!!!URL-scan: https://polish.musicsources.pl/pl/lokalizacje/galeria/druki-muzyczne/18538/2 @EN{Scan on Polish Music Sources Website} @PL{Skany w portalu Dziedzictwo Muzyki Polskiej w otwartym dostępie}
!!!IIIF:
!!!ONB-nifc:
!!!AIN: 1 piano
!!!key: C
**kern	**fing	**kern	**fing	**dynam
*part1	*	*part1	*	*part1
*staff2	*	*staff1	*	*staff1/2
*group1	*	*group1	*	*
*ICklav	*	*ICklav	*	*
*Ipiano	*	*Ipiano	*	*
*>[A,B,B1,B,B2,C]	*>[A,B,B1,B,B2,C]	*>[A,B,B1,B,B2,C]	*>[A,B,B1,B,B2,C]	*>[A,B,B1,B,B2,C]
*I"PIANO.	*	*I"PIANO.	*	*
*	*	*I'	*	*
*clefF4	*	*clefG2	*	*
*k[]	*	*k[]	*	*
*C:	*	*C:	*	*
*M2/4	*	*M2/4	*	*
=1	=1	=1	=1	=1
*>A	*>A	*>A	*>A	*>A
*^	*	*	*	*
!!LO:TX:a:B:t=Presto.
8B'::/	8D:: 8GG::\	.	(>16aLL 16f/	.	p
!LO:TX:b:i:t=ben marcato il canto	!	!	!	!	!
.	.	.	.	.	.
.	.	.	16b 16g/	.	.
(4e^/	8rAA	.	16a 16f/	.	.
.	.	.	16bJJ 16g/	.	.
.	4rAA	.	16aLL 16f/	.	.
.	.	.	16b 16g/	.	.
8d/)	.	.	16a 16f/	.	.
.	.	.	16bJJ 16g/	.	.
=2!|:	=2!|:	=2!|:	=2!|:	=2!|:	=2!|:
*>B	*>B	*>B	*>B	*>B	*>B
(16c/LL	2rBB	.	16ccLL 16e/	.	.
16B/JJ	.	.	16b 16g/	.	.
4A^/	.	.	16cc 16e/	.	.
.	.	.	16bJJ 16g/	.	.
.	.	.	16ccLL 16e/	.	.
.	.	.	16b 16g/	.	.
8G/)	.	.	16cc 16e/	.	.
.	.	.	16bJJ 16g/)	.	.
=3	=3	=3	=3	=3	=3
(16A::/LL	8D:: 8GG::\	.	(>16aLL 16f/	.	.
16B/JJ	.	.	16b 16g/	.	.
4e/	8rAA	.	16a 16f/	.	.
.	.	.	16bJJ 16g/	.	.
.	4rAA	.	16aLL 16f/	.	.
.	.	.	16b 16g/	.	.
8d/)	.	.	16a 16f/	.	.
.	.	.	16bJJ 16g/	.	.
!!LO:LB:g=original
=4	=4	=4	=4	=4	=4
(16c/LL	2rBB	.	16ccLL 16e/	.	.
16B/JJ	.	.	16b 16g/	.	.
4A/	.	.	16cc 16e/	.	.
.	.	.	16bJJ 16g/	.	.
.	.	.	16ccLL 16e/	.	.
.	.	.	16b 16g/	.	.
8G/)	.	.	16cc 16e/	.	.
.	.	.	16bJJ 16g/)	.	.
=5	=5	=5	=5	=5	=5
(16c::/LL	8D::\	.	(>16aLL 16e/	.	.
16d/JJ	.	.	16b 16g/	.	.
4c/	8rAA	.	16a 16e/	.	.
.	.	.	16bJJ 16g/	.	.
.	4rAA	.	16aLL 16e/	.	.
.	.	.	16b 16g/	.	.
8B/)	.	.	16a 16e/	.	.
.	.	.	16bJJ 16g/	.	.
=6	=6	=6	=6	=6	=6
(16A::/LL	8D::\	.	16ccLL 16e/	.	.
16G/JJ	.	.	16b 16g/	.	.
4A/	8rAA	.	16cc 16e/	.	.
.	.	.	16bJJ 16g/	.	.
.	4rAA	.	16ccLL 16e/	.	.
.	.	.	16b 16g/	.	.
8B/)	.	.	16cc 16e/	.	.
.	.	.	16bJJ 16g/)	.	.
=7	=7	=7	=7	=7	=7
(16c:/LL	8D:\	.	(>16aLL 16e/	.	<
16d/	.	.	16b 16g/	.	.
16c/	8rAA	.	16a 16e/	.	.
16B/JJ	.	.	16bJJ 16g/	.	.
.	.	.	.	.	[
16A/LL	4rAA	.	16ccLL 16e/	.	>
16G/	.	.	16b 16g/	.	.
16A/	.	.	16cc 16e/	.	.
16B/JJ	.	.	16bJJ 16g/	.	]
!!LO:LB:g=original
=8	=8	=8	=8	=8	=8
16c::/LL	8D::\	.	16aLL 16e/	.	.
16d/J	.	.	16b 16g/	.	.
8c/J)	8rGG	.	16a 16e/	.	.
.	.	.	16bJJ 16g/	.	.
8D'/L	4rGG	.	16aLL 16e/	.	.
.	.	.	16b 16f#X/	.	.
8D'/J	.	.	16a 16e/	.	.
.	.	.	16bJJ 16f#/)	.	.
=9	=9	=9	=9	=9	=9
(16G/LL	[2GG\	.	(>16gLL 16B/	.	.
16F#X/JJ	.	.	16a 16d/	.	.
4E/	.	.	16g 16B/	.	.
.	.	.	16aJJ 16d/	.	.
.	.	.	16gLL 16B/	.	.
.	.	.	16a 16d/	.	.
8D'</)	.	.	16g 16B/	.	.
.	.	.	16aJJ 16d/)	.	.
=10	=10	=10	=10	=10	=10
(16C/LL	2GG\]	.	(>16bLL 16e/	.	.
16D/JJ	.	.	16a 16f#X/	.	.
4C/	.	.	16b 16e/	.	.
.	.	.	16aJJ 16f#/	.	.
.	.	.	16bLL 16e/	.	.
.	.	.	16a 16f#/	.	.
8D'</)	.	.	16b 16e/	.	.
.	.	.	16aJJ 16f#/)	.	.
=11	=11	=11	=11	=11	=11
!	!	!	!	!	!LO:HP:t=poco cresc.
(16G/LL	2GG\	.	(>16gLL 16B/	.	<
16F#X/	.	.	16a 16d/	.	.
16E/	.	.	16g 16B/	.	.
16D/JJ	.	.	16aJJ 16d/)	.	.
16C/LL	.	.	(>16bLL 16e/	.	.
16D/J	.	.	16a 16f#X/	.	.
8C'</J)	.	.	16b 16e/	.	.
.	.	.	16aJJ 16f#/)	.	.
!!LO:LB:g=original
=12	=12	=12	=12	=12	=12
(16G/LL	4GG\	.	(>16gLL 16B/	.	.
.	.	.	.	.	>
16F#X/J	.	.	16a 16d/	.	.
8G'</J)	.	.	16g 16B/	.	.
.	.	.	16aJJ 16d/)	.	.
(16B-X/LL	4C\	.	(>16gLL 16d/	.	.
16c/J	.	.	16a 16e/	.	.
8B-'</J)	.	.	16g 16d/	.	.
.	.	.	16aJJ 16e/)	.	.
=13	=13	=13	=13	=13	=13
(16Fn/LL	[2FFn\	.	(>16fnLL 16A/	.	.
16E/JJ	.	.	16g 16c/	.	.
4D/	.	.	16f 16A/	.	.
.	.	.	16gJJ 16c/	.	.
.	.	.	16fLL 16A/	.	.
.	.	.	16g 16c/	.	.
8C/)	.	.	16f 16A/	.	.
.	.	.	16gJJ 16c/)	.	.
=14	=14	=14	=14	=14	=14
(16BB-X/LL	2FF\]	.	(>16aLL 16d/	.	.
16C/JJ	.	.	16g 16e/	.	.
4BB-/	.	.	16a 16d/	.	.
.	.	.	16gJJ 16e/	.	.
.	.	.	16aLL 16d/	.	.
.	.	.	16g 16e/	.	.
8C/)	.	.	16a 16d/	.	.
.	.	.	16gJJ 16e/)	.	.
!!LO:LB:g=original
=15	=15	=15	=15	=15	=15
(16F/LL	2FF\	.	(>16fLL 16A/	.	<
16E/	.	.	16g 16c/	.	.
16D/	.	.	16f 16A/	.	.
16C/JJ	.	.	16gJJ 16c/)	.	.
16BB-X/LL	.	.	(>16aLL 16d/	.	.
16C/J	.	.	16g 16e/	.	[
8BB-'</J)	.	.	16a 16d/	.	.
.	.	.	16gJJ 16e/)	.	.
=16	=16	=16	=16	=16	=16
(16F/LL	4FF\	.	(>16fLL 16A/	.	.
16E/J	.	.	16g 16c/	.	.
!	!	!	!LO:TX:b:i:t=dim.-:ext=ud:problem:text with extention lines	!	!
8F/J)	.	.	16f 16A/	.	>
.	.	.	16gJJ 16c/)	.	.
(16C/LL	4FF#X\	.	(>16eLL 16A/	.	.
16D/J	.	.	16fn 16c/	.	.
8C/J)	.	.	16e 16A/	.	.
.	.	.	16fJJ 16c/)	.	]
=17	=17	=17	=17	=17	=17
!	!	!	!	!	!LO:DY:rj
4C/	(16GG\LL	.	(>16dLL 16G/	.	p
.	16FF#X\J	.	16e 16c/	.	.
.	8GG'>\J)	.	16d 16G/	.	.
.	.	.	16eJJ 16c/	.	.
(16C/LL	4DD\	.	16fnLL 16A/	.	.
16D/J	.	.	16e 16c/	.	.
8C'</J)	.	.	16f 16A/	.	.
.	.	.	16eJJ 16c/)	.	.
!!LO:PB:g=original
=18	=18	=18	=18	=18	=18
4C/	(16GG\LL	.	(>16dLL 16G/	.	.
.	16FF#X\J	.	16e 16c/	.	.
.	8GG\J)	.	16d 16G/	.	.
.	.	.	16eJJ 16c/	.	.
(16C/LL	4DD\	.	16fnLL 16A/	.	.
16D/J	.	.	16e 16c/	.	.
8C/J)	.	.	16f 16A/	.	.
.	.	.	16eJJ 16c/)	.	.
=19	=19	=19	=19	=19	=19
(8C/L	4GG\	.	(16dLL 16G/	.	.
.	.	.	16e 16c/)	.	.
8BB/J)	.	.	16e 16d/	.	.
!	!	!	!LO:TX:b:i:t=poco a poco cresc.-:ext=ud:problem:text with extention lines	!	!
.	.	.	16fJJ 16G/	.	<
(8C/L	4GG\	.	(16dLL 16G/	.	.
.	.	.	16e 16c/)	.	.
8BB/J)	.	.	16e 16d/	.	.
.	.	.	16fJJ 16G/	.	.
=20	=20	=20	=20	=20	=20
(8D/L	4GG\	.	(16eLL 16A/	.	.
.	.	.	16f 16d/)	.	.
8C/J)	.	.	16f 16e/	.	.
.	.	.	16gJJ 16A/	.	.
(8D/L	4GG\	.	(16eLL 16A/	.	.
.	.	.	16f 16d/)	.	.
8C/J)	.	.	16f 16e/	.	.
.	.	.	16gJJ 16A/	.	.
=21	=21	=21	=21	=21	=21
(8E/L	4GG\	.	(16fLL 16B/	.	.
.	.	.	16g 16e/)	.	.
8D/J)	.	.	16g 16f/	.	.
.	.	.	16aJJ 16B/	.	.
(8E/L	4GG\	.	(16fLL 16B/	.	.
.	.	.	16g 16e/)	.	.
8D/J)	.	.	16g 16f/	.	.
.	.	.	16aJJ 16B/	.	.
!!LO:LB:g=original
=22	=22	=22	=22	=22	=22
!!LO:TX:a:B:t=1.
*>B1	*>B1	*>B1	*>B1	*>B1	*>B1
(8F/L	4GG\	.	(16gLL 16c/	.	.
.	.	.	16a 16f/)	.	.
8E/J)	.	.	16a 16g/	.	.
.	.	.	16bJJ 16c/	.	.
(8F/L	4GG\	.	(16gLL 16c/	.	.
.	.	.	16a 16f/)	.	.
8E/J)	.	.	16a 16g/	.	.
.	.	.	16bJJ 16c/	.	.
=23	=23	=23	=23	=23	=23
(8G/L	4GG\	.	(16aLL 16d/	.	.
.	.	.	16b 16g/)	.	.
8F#X/J)	.	.	16b 16a/	.	.
.	.	.	16ccJJ 16d/	.	.
!	!	!	!LO:TX:b:i:t=allarg.	!	!
(8G/L	4GG\	.	(16aLL 16d/	.	.
.	.	.	16b 16g/)	.	.
8F#/J)	.	.	16b 16a/	.	.
.	.	.	16ccJJ 16d/	.	.
=24	=24	=24	=24	=24	=24
(8G/L	4GG\	.	(16aLL 16d/	.	.
.	.	.	16b 16g/)	.	.
8F#X/J)	.	.	16b 16a/	.	.
.	.	.	16ccJJ 16d/	.	.
(8G/L	4GG\	.	(16aLL 16d/	.	.
.	.	.	16b 16g/)	.	.
8F#/J)	.	.	16b 16a/	.	[
.	.	.	16ccJJ 16d/	.	.
=25	=25	=25	=25	=25	=25
8B::/	8D:: 8GG::\	.	(>16aLL 16fnX/	.	ff >
.	.	.	16b 16g/	.	.
(4e^/	8rBB	.	16a 16f/	.	.
.	.	.	16bJJ 16g/	.	.
.	4rBB	.	16aLL 16f/	.	.
.	.	.	16b 16g/	.	.
8d/)	.	.	16a 16f/	.	.
.	.	.	16bJJ 16g/)	.	]
!!LO:LB:g=original
=26:|!	=26:|!	=26:|!	=26:|!	=26:|!	=26:|!
!!LO:TX:a:B:t=2.
*>B2	*>B2	*>B2	*>B2	*>B2	*>B2
(8F/L	4C\	.	(16gLL 16c/	.	.
!	!	!	!LO:TX:b:i:t=sempre-cresc.:ext=s:problem:text with extention lines	!	!
.	.	.	16a 16f/)	.	<
8E/J)	.	.	16a 16g/	.	.
.	.	.	16b-XJJ 16c/	.	.
(8G/L	4C\	.	(16aLL 16d/	.	.
.	.	.	16b- 16g/)	.	.
8F/J)	.	.	16b- 16a/	.	[
.	.	.	16ccJJ 16d/	.	.
=27	=27	=27	=27	=27	=27
*>C	*>C	*>C	*>C	*>C	*>C
(8A/L	4C\	.	(16b-XLL 16e/	.	.
.	.	.	16cc 16a/)	.	.
8G/J)	.	.	16cc 16b-/	.	.
.	.	.	16ddJJ 16e/	.	.
(8B-X/L	4C\	.	(16ccLL 16f/	.	.
.	.	.	16dd 16b-/)	.	.
8A/J)	.	.	16dd 16cc/	.	.
.	.	.	16eeJJ 16f/	.	.
=28	=28	=28	=28	=28	=28
(8B-X/L	4C\	.	(16ccLL 16f/	.	.
.	.	.	16dd 16b-X/)	.	.
!	!	!	!LO:TX:b:i:t=poco rit.	!	!
8A/J)	.	.	16dd 16cc/	.	.
.	.	.	16eeJJ 16f/	.	.
(8B-/L	4C\	.	(16ccLL 16f/	.	.
.	.	.	16dd 16b-/)	.	.
8A/J)	.	.	16dd 16cc/	.	.
.	.	.	16eeJJ 16f/	.	.
!!LO:LB:g=original
=29	=29	=29	=29	=29	=29
!!LO:TX:a:i:t=a tempo
!	!	!	!	!	!LO:DY:rj
(16D::/LL	8BBBn::\	.	(16ffLL 16dd\	.	ff
16E/JJ	.	.	16gg 16ee\	.	.
4G^/	8rCC	.	16ff 16dd\	.	.
.	.	.	16ggJJ 16ee\	.	.
.	4rCC	.	16ffLL 16dd\	.	.
.	.	.	16gg 16ee\	.	.
8F/)	.	.	16ff 16dd\	.	.
.	.	.	16ggJJ 16ee\	.	.
=30	=30	=30	=30	=30	=30
(16d::/LL	8A:: 8F:: 8BB::\	.	16ffLL 16dd\	.	.
16e/JJ	.	.	16gg 16ee\	.	.
4g^/	8rAA	.	16ff 16dd\	.	.
.	.	.	16ggJJ 16ee\	.	.
.	4rAA	.	16ffLL 16dd\	.	.
.	.	.	16gg 16ee\	.	.
8f/)	.	.	16ff 16dd\	.	.
.	.	.	16ggJJ 16ee\	.	.
*v	*v	*	*	*	*
=31	=31	=31	=31	=31
*	*	*8va	*	*
*^	*	*	*	*
8rA	4BB\	.	16aaLL 16ff/	1 3	.
.	.	.	16bb 16gg/	.	.
4d 4A 4F/	.	.	16ccc 16aa/	3 5	.
.	.	.	16dddJJ 16bb/	1 3	.
.	4rAA	.	16eeeLL 16ccc\	.	.
.	.	.	16fff 16ddd\	3 5	.
8d 8A 8F/	.	.	16ggg 16eee\	1 3	.
.	.	.	16aaaJJ 16fff\)	.	.
=32	=32	=32	=32	=32	=32
8rA	4BB\	.	8aaa 8fff^<\	1 3	.
4d 4A 4F/	.	.	8r	.	.
.	4rAA	.	4aa 4ff/	.	.
8d 8A 8F/	.	.	.	.	.
!!LO:LB:g=original
=33	=33	=33	=33	=33	=33
!	!	!	!	!	!LO:DY:rj
(16d::/LL	8A-X:: 8F:: 8BB-X::\	.	(16aa-XLL 16ff/	.	pp
16e-X/JJ	.	.	16bb-X 16gg/	.	.
4g/	8rAA	.	16aa- 16ff/	.	.
.	.	.	16bb-JJ 16gg/	.	.
.	4rAA	.	16aa-LL 16ff/	.	.
.	.	.	16bb- 16gg/	.	.
8f/)	.	.	16aa- 16ff/	.	.
.	.	.	16bb-JJ 16gg/	.	.
=34	=34	=34	=34	=34	=34
(16D::/LL	8BBB-X::\	.	16aa-XLL 16ff/	.	.
16E-X/JJ	.	.	16bb-X 16gg/	.	.
4G/	8rCC	.	16aa- 16ff/	.	.
.	.	.	16bb-JJ 16gg/	.	.
.	4rCC	.	16aa-LL 16ff/	.	.
.	.	.	16bb- 16gg/	.	.
8F/)	.	.	16aa- 16ff/	.	.
.	.	.	16bb-JJ 16gg/	.	.
=35	=35	=35	=35	=35	=35
8rA	4BB-X\	.	16aa-XLL 16ff/	1 2	.
.	.	.	16bb-X 16gg/	.	.
4d 4A-X 4F/	.	.	16ccc 16aa-/	.	.
.	.	.	16dddJJ 16bb-/	3 5	.
.	4rAA	.	16eee-XLL 16ccc\	1 2	.
.	.	.	16fff 16ddd\	.	.
8d 8A- 8F/	.	.	16ggg 16eee-\	.	.
.	.	.	16aaa-XJJ 16fff\)	.	.
=36	=36	=36	=36	=36	=36
8rA	4BB-X\	.	8aaa-X 8fff\	1 3	.
4d 4A-X 4F/	.	.	8r	.	.
.	4rGG	.	4aa-X 4ff/	.	.
8d 8A- 8F/	.	.	.	.	.
!!LO:PB:g=original
=37	=37	=37	=37	=37	=37
!	!	!	!	!	!LO:DY:rj
(16C#X::/LL	8AAA#X::\	.	(16gg#XLL 16een/	.	ff
16D#X/JJ	.	.	16aa#X 16ff#X/	.	.
4F#X/	8rCC	.	16gg# 16ee/	.	.
.	.	.	16aa#JJ 16ff#/	.	.
.	4rCC	.	16gg#LL 16ee/	.	.
.	.	.	16aa# 16ff#/	.	.
8E/)	.	.	16gg# 16ee/	.	.
.	.	.	16aa#JJ 16ff#/	.	.
=38	=38	=38	=38	=38	=38
(16c#X::/LL	8G#X:: 8E:: 8AA#X::\	.	16gg#XLL 16ee/	.	.
16d#X/JJ	.	.	16aa#X 16ff#X/	.	.
4f#X/	8rGG	.	16gg# 16ee/	.	.
.	.	.	16aa#JJ 16ff#/	.	.
.	4rGG	.	16gg#LL 16ee/	.	.
.	.	.	16aa# 16ff#/	.	.
8e/)	.	.	16gg# 16ee/	.	.
.	.	.	16aa#JJ 16ff#/	.	.
=39	=39	=39	=39	=39	=39
8rA	4AA#X\	.	16gg#XLL 16ee/	1 3	.
.	.	.	16aa#X 16ff#X/	.	.
4c#X 4G#X 4E/	.	.	16bb 16gg#/	3 5	.
.	.	.	16ccc#XJJ 16aa#/	1 3	.
.	4rGG	.	16ddd#XLL 16bb\	.	.
.	.	.	16eee 16ccc#\	3 5	.
8c# 8G# 8E/	.	.	16fff 16ddd#\	1 3	.
.	.	.	16ggg#XJJ 16eee\)	.	.
=40	=40	=40	=40	=40	=40
!	!	!	!LO:SIC:v:s=8ggg# 8eee^<\	!	!
8rA	4AA#X\	.	8ggg 8eee^<\	1 3	.
4c#X 4G#X 4E/	.	.	8r	.	.
.	4rGG	.	4gg#X 4ee/	.	.
8c# 8G# 8E/	.	.	.	.	.
!!LO:LB:g=original
=41	=41	=41	=41	=41	=41
!	!	!	!	!	!LO:DY:rj
(16c#X::/LL	8Gn:: 8E:: 8AAn::\	.	(16ggnLL 16ee/	.	pp
16dn/JJ	.	.	16aa 16ff#X/	.	.
4f#X/	8rGG	.	16gg 16ee/	.	.
!LO:TX:a:i:t=dolce	!	!	!	!	!
.	.	.	16aaJJ 16ff#/	.	.
.	4rGG	.	16ggLL 16ee/	.	.
.	.	.	16aa 16ff#/	.	.
8e/)	.	.	16gg 16ee/	.	.
.	.	.	16aaJJ 16ff#/	.	.
=42	=42	=42	=42	=42	=42
(16C#X::/LL	8AAA::\	.	16ggLL 16ee/	.	.
16D/JJ	.	.	16aa 16ff#X/	.	.
4F#X/	8rEE	.	16gg 16ee/	.	.
.	.	.	16aaJJ 16ff#/	.	.
.	4rEE	.	16ggLL 16ee/	.	.
.	.	.	16aa 16ff#/	.	.
8E/)	.	.	16gg 16ee/	.	.
.	.	.	16aaJJ 16ff#/	.	.
=43	=43	=43	=43	=43	=43
8rA	4AA\	.	16ggLL 16ee/	.	.
.	.	.	16aa 16ff#X/	.	.
4c#X 4G 4E/	.	.	16bb 16gg/	3 5	.
.	.	.	16ccc#XJJ 16aa/	1 3	.
.	4rGG	.	16dddLL 16bb\	.	.
.	.	.	16eee 16ccc#\	3 5	.
8c# 8G 8E/	.	.	16fff#X 16ddd\	1 3	.
.	.	.	16gggJJ 16eee\)	.	.
=44	=44	=44	=44	=44	=44
8rA	4AA\	.	8ggg 8eee\	1 3	.
4c#X 4G 4E/	.	.	8r	.	.
.	4rGG	.	4gg 4ee/	.	.
8c# 8G 8E/	.	.	.	.	.
!!LO:LB:g=original
=45	=45	=45	=45	=45	=45
(16Cn::/LL	8AAA::\	.	(16ggLL 16ee-X/	.	ff
16D/JJ	.	.	16aa 16ffn/	.	.
4Fn/	8rCC	.	16gg 16ee-/	.	.
.	.	.	16aaJJ 16ff/	.	.
.	4rCC	.	16ggLL 16ee-/	.	.
.	.	.	16aa 16ff/	.	.
8E-X/)	.	.	16gg 16ee-/	.	.
.	.	.	16aaJJ 16ff/	.	.
=46	=46	=46	=46	=46	=46
(16c::/LL	8G:: 8E-X:: 8AA::\	.	16ggLL 16ee-X/	.	.
16d/JJ	.	.	16aa 16ff/	.	.
4f/	8rAA	.	16gg 16ee-/	.	.
.	.	.	16aaJJ 16ff/	.	.
.	4rAA	.	16ggLL 16ee-/	.	.
.	.	.	16aa 16ff/	.	.
8e-X/)	.	.	16gg 16ee-/	.	.
.	.	.	16aaJJ 16ff/	.	.
=47	=47	=47	=47	=47	=47
8rA	4AA\	.	16ggLL 16ee-X/	.	.
.	.	.	16aa 16ff/	.	.
4c 4G 4E-X/	.	.	16bb-X 16gg/	1 3	.
.	.	.	16cccJJ 16aa/	.	.
.	4rGG	.	16dddLL 16bb-\	3 5	.
.	.	.	16eee-X 16ccc\	1 2	.
8c 8G 8E-/	.	.	16fff 16ddd\	.	.
.	.	.	16gggJJ 16eee-\)	.	.
=48	=48	=48	=48	=48	=48
8rA	4AA\	.	8ggg 8eee-X^<\	3 5	.
4c 4G 4E-X/	.	.	8r	.	.
.	4rGG	.	4gg 4ee-X/	.	.
8c 8G 8E-/	.	.	.	.	.
!!LO:LB:g=original
=49	=49	=49	=49	=49	=49
!	!	!	!	!	!LO:DY:rj
(16c::/LL	8G-X:: 8E-X:: 8AA-X::\	.	(16gg-XLL 16ee-X/	.	pp
16d-X/JJ	.	.	16aa-X 16ff/	.	.
4f/	8rGG	.	16gg- 16ee-/	.	.
.	.	.	16aa-JJ 16ff/	.	.
.	4rGG	.	16gg-LL 16ee-/	.	.
.	.	.	16aa- 16ff/	.	.
8e-X/)	.	.	16gg- 16ee-/	.	.
.	.	.	16aa-JJ 16ff/	.	.
=50	=50	=50	=50	=50	=50
(16C::/LL	8AAA-X::\	.	16gg-XLL 16ee-X/	.	.
16D-X/JJ	.	.	16aa-X 16ff/	.	.
4F/	8rCC	.	16gg- 16ee-/	.	.
.	.	.	16aa-JJ 16ff/	.	.
.	4rCC	.	16gg-LL 16ee-/	.	.
.	.	.	16aa- 16ff/	.	.
8E-X/)	.	.	16gg- 16ee-/	.	.
.	.	.	16aa-JJ 16ff/	.	.
=51	=51	=51	=51	=51	=51
8rF	4AA-X\	.	16gg-XLL 16ee-X/	1 2	.
.	.	.	16aa-X 16ff/	.	.
4c 4G-X 4E-X/	.	.	16bb-X 16gg-/	.	.
.	.	.	16cccJJ 16aa-/	3 5	.
.	4rEE	.	16ddd-XLL 16bb-\	1 2	.
.	.	.	16eee-X 16ccc\	.	.
8c 8G- 8E-/	.	.	16fff 16ddd-\	.	.
.	.	.	16ggg-XJJ 16eee-\)	.	.
=52	=52	=52	=52	=52	=52
!	!	!	!LO:SIC:v:s=8ggg-X 8eee-\	!	!
8rF	2AA-X\	.	8ggg-X 8eee\	1 3	.
*	*	*	*X8va	*	*
4c 4G-X 4E-X/	.	.	8r	.	.
.	.	.	4ff#X 4ee-X\	.	.
8c 8F#X 8E-/	.	.	.	.	.
!!LO:LB:g=original
=53	=53	=53	=53	=53	=53
8rA	2GG\	.	(16ggnLL 16cc\	.	p
.	.	.	16aan 16een\	.	.
(8gL 8en 8G/	.	.	16gg 16cc\	.	.
.	.	.	16aaJJ 16ee\	.	.
8f#X 8e-X 8G/)	.	.	16bbnLL 16cc\	.	.
.	.	.	16aa 16ee-X\	.	.
8f#J 8e- 8G/	.	.	16bb 16cc\	.	.
.	.	.	16aaJJ 16ee-\)	.	.
=54	=54	=54	=54	=54	=54
8rA	2GG\	.	(16ggLL 16cc\	.	.
.	.	.	16aa 16een\	.	.
(8gL 8en 8G/	.	.	16gg 16cc\	.	.
.	.	.	16aaJJ 16ee\	.	.
8f#X 8e-X 8G/)	.	.	16bbLL 16cc\	.	.
.	.	.	16aa 16ee-X\	.	.
8f#J 8e- 8G/	.	.	16bb 16cc\	.	.
.	.	.	16aaJJ 16ee-\)	.	.
=55	=55	=55	=55	=55	=55
8rA	2GG\	.	(16ggLL 16cc\	.	.
.	.	.	16aa 16ffn\	.	.
(8fnL 8d 8G/	.	.	16gg 16cc\	.	.
.	.	.	16aaJJ 16ff\	.	.
8en 8c 8G/)	.	.	16bbLL 16cc\	.	.
.	.	.	16aa 16een\	.	.
8eJ 8c 8G/	.	.	16bb 16cc\	.	.
.	.	.	16aaJJ 16ee\)	.	.
=56	=56	=56	=56	=56	=56
8rA	2GG\	.	(16ggLL 16cc\	.	.
.	.	.	16aa 16ff\	.	.
(8fL 8d 8G/	.	.	16gg 16cc\	.	.
.	.	.	16aaJJ 16ff\	.	.
8e 8c 8G/)	.	.	16bbLL 16cc\	.	.
.	.	.	16aa 16ee\	.	.
8eJ 8c 8G/	.	.	16bb 16cc\	.	.
.	.	.	16aaJJ 16ee\)	.	.
!!LO:PB:g=original
=57	=57	=57	=57	=57	=57
!	!	!	!LO:TX:b:i:t=cresc.-molto-:ext=ud:problem:text with extention lines	!	!
8rB	4GG^\	.	(16ggLL 16cc\	.	<
.	.	.	16aa 16ff\	.	.
8f 8d 8G/	.	.	16gg 16cc\	.	.
.	.	.	16aaJJ 16ff\	.	.
8rB	4F^\	.	16bbLL 16dd\	.	.
.	.	.	16ccc 16gg\	.	.
8g 8d 8B/	.	.	16bb 16dd\	.	.
.	.	.	16cccJJ 16gg\	.	.
=58	=58	=58	=58	=58	=58
8rB	4E^\	.	16dddLL 16gg\	.	.
.	.	.	16eee 16bb\	.	.
8g 8d 8B/	.	.	16ddd 16gg\	.	.
.	.	.	16eeeJJ 16bb\	.	.
8rB	4AA^\	.	16fffLL 16aa\	.	.
.	.	.	16ggg 16ccc\	.	.
8g 8c 8A/	.	.	16fff 16aa\	.	.
.	.	.	16gggJJ 16ccc\)	.	[[
=59	=59	=59	=59	=59	=59
(2g [2c [2A/	[2DD\	.	16aaaLL 16fff 16aa'\	.	ff
.	.	.	16ggg 16eee 16gg'\	.	.
.	.	.	16fff 16ddd 16ff'\	.	.
.	.	.	16eeeJJ 16ccc 16ee'\	.	.
.	.	.	16dddLL 16bb 16dd'\	.	.
.	.	.	16ccc 16aa 16cc'\	.	.
.	.	.	16bb 16gg 16b'\	.	.
.	.	.	16aaJJ 16ff 16a'\	.	.
=60	=60	=60	=60	=60	=60
[4f 4c_ 4A/_)	4DD\_	.	16bbLL 16gg'\	.	p
.	.	.	16aa 16ff'\	.	.
.	.	.	16gg 16ee'\	.	.
.	.	.	16ffJJ 16dd'\	.	.
!!LO:TX:a:i:t=pochissimo\nstentando
8f] 8c] 8A/]	8DD\]	.	16eeLL 16cc'\	.	.
.	.	.	16dd 16b'\	.	.
8r	8ryy	.	16cc 16a'\	.	.
.	.	.	16bJJ 16g'\	.	.
!!LO:LB:g=original
=61	=61	=61	=61	=61	=61
!	!	!	!LO:TX:b:i:t=a tempo	!	!
8B::/	8D:: 8GG::\	.	16aLL 16f/	.	.
.	.	.	16b 16g/	.	.
(4e/	8rBB	.	16a 16f/	.	.
.	.	.	16bJJ 16g/	.	.
.	4rBB	.	16aLL 16f/	.	.
.	.	.	16b 16g/	.	.
8d/)	.	.	16a 16f/	.	.
.	.	.	16bJJ 16g/	.	.
=62	=62	=62	=62	=62	=62
16c/LL	2rBB	.	16ccLL 16e/	.	.
16B/JJ	.	.	16b 16g/	.	.
(4A/	.	.	16cc 16e/	.	.
.	.	.	16bJJ 16g/	.	.
.	.	.	16ccLL 16e/	.	.
.	.	.	16b 16g/	.	.
8G/)	.	.	16cc 16e/	.	.
.	.	.	16bJJ 16g/	.	.
=63	=63	=63	=63	=63	=63
16A/LL	8D 8GG\	.	16aLL 16f/	.	.
16B/JJ	.	.	16b 16g/	.	.
(4e/	8rBB	.	16a 16f/	.	.
.	.	.	16bJJ 16g/	.	.
.	4rBB	.	16aLL 16f/	.	.
.	.	.	16b 16g/	.	.
8d/)	.	.	16a 16f/	.	.
.	.	.	16bJJ 16g/	.	.
=64	=64	=64	=64	=64	=64
16c/LL	2rBB	.	16ccLL 16e/	.	.
16B/JJ	.	.	16b 16g/	.	.
(4A/	.	.	16cc 16e/	.	.
.	.	.	16bJJ 16g/	.	.
.	.	.	16ccLL 16e/	.	.
.	.	.	16b 16g/	.	.
8G/)	.	.	16cc 16e/	.	.
.	.	.	16bJJ 16g/	.	.
=65	=65	=65	=65	=65	=65
(16c/LL	8D\	.	16aLL 16e/	.	.
16d/JJ	.	.	16b 16g/	.	.
4c/	8rBB	.	16a 16e/	.	.
.	.	.	16bJJ 16g/	.	.
.	4rBB	.	16aLL 16e/	.	.
.	.	.	16b 16g/	.	.
8B/)	.	.	16a 16e/	.	.
.	.	.	16bJJ 16g/	.	.
!!LO:LB:g=original
=66	=66	=66	=66	=66	=66
(16A/LL	8D\	.	16ccLL 16e/	.	.
16G/JJ	.	.	16b 16g/	.	.
4A/	8rBB	.	16cc 16e/	.	.
.	.	.	16bJJ 16g/	.	.
.	4rBB	.	16ccLL 16e/	.	.
.	.	.	16b 16g/	.	.
8B/)	.	.	16cc 16e/	.	.
.	.	.	16bJJ 16g/	.	.
=67	=67	=67	=67	=67	=67
(16c/LL	8D\	.	16aLL 16e/	.	.
16d/	.	.	16b 16g/	.	.
16c/)	8rBB	.	16a 16e/	.	.
16B/JJ	.	.	16bJJ 16g/	.	.
16A/LL	4rBB	.	16ccLL 16e/	.	.
16G/	.	.	16b 16g/	.	.
16A/	.	.	16cc 16e/	.	.
16B/JJ	.	.	16bJJ 16g/	.	.
=68	=68	=68	=68	=68	=68
(16c/LL	8D\	.	16aLL 16e/	.	.
16d/JJ	.	.	16b 16g/	.	.
8c/)	8ryy	.	16a 16e/	.	.
.	.	.	16bJJ 16g/	.	.
8D'/L	4r	.	16aLL 16e/	.	.
.	.	.	16b 16f#X/	.	.
8D'/J	.	.	16a 16e/	.	.
.	.	.	16bJJ 16f#/	.	.
=69	=69	=69	=69	=69	=69
16G/LL	2GG\	.	16gLL 16B/	.	.
16F#X/JJ	.	.	16a 16d/	.	.
(4E/	.	.	16g 16B/	.	.
.	.	.	16aJJ 16d/	.	.
.	.	.	16gLL 16B/	.	.
.	.	.	16a 16d/	.	.
8D/)	.	.	16g 16B/	.	.
.	.	.	16aJJ 16d/	.	.
=70	=70	=70	=70	=70	=70
16C/LL	2GG\	.	16bLL 16e/	.	.
16D/JJ	.	.	16a 16f#X/	.	.
(4C/	.	.	16b 16e/	.	.
.	.	.	16aJJ 16f#/	.	.
.	.	.	16bLL 16e/	.	.
.	.	.	16a 16f#/	.	.
8D/)	.	.	16b 16e/	.	.
.	.	.	16aJJ 16f#/	.	.
!!LO:LB:g=original
=71	=71	=71	=71	=71	=71
16G/LL	2GG\	.	16gLL 16B/	.	.
16F#X/	.	.	16a 16d/	.	.
16E/	.	.	16g 16B/	.	.
16D/JJ	.	.	16aJJ 16d/	.	.
16C/LL	.	.	16bLL 16e/	.	.
16D/J	.	.	16a 16f#X/	.	.
8C/J	.	.	16b 16e/	.	.
.	.	.	16aJJ 16f#/	.	.
=72	=72	=72	=72	=72	=72
16G/LL	4GG\	.	(>16gLL 16B/	.	.
16F#X/J	.	.	16a 16d/	.	.
8G/J	.	.	16g 16B/	.	.
.	.	.	16aJJ 16d/)	.	.
16B-X/LL	4C\	.	(>16gLL 16d/	.	.
16c/J	.	.	16a 16e/	.	.
8B-/J	.	.	16g 16d/	.	.
.	.	.	16aJJ 16e/)	.	.
=73	=73	=73	=73	=73	=73
!	!	!	!LO:TX:b:i:t=poco-a-poco-cresc.-:ext=ud:problem:text with extention lines	!	!
16Fn/LL	2FFn\	.	(>16fnLL 16A/	.	<
16E/JJ	.	.	16g 16c/	.	.
(4D/	.	.	16f 16A/	.	.
.	.	.	16gJJ 16c/	.	.
.	.	.	16fLL 16A/	.	.
.	.	.	16g 16c/	.	.
8C/)	.	.	16f 16A/	.	.
.	.	.	16gJJ 16c/)	.	.
=74	=74	=74	=74	=74	=74
16BB-X/LL	2FF\	.	(>16aLL 16d/	.	.
16C/JJ	.	.	16g 16e/	.	.
(4BB-/	.	.	16a 16d/	.	.
.	.	.	16gJJ 16e/	.	.
.	.	.	16aLL 16d/	.	.
.	.	.	16g 16e/	.	.
8C/)	.	.	16a 16d/	.	.
.	.	.	16gJJ 16e/)	.	.
!!LO:LB:g=original
=75	=75	=75	=75	=75	=75
16F/LL	2FF\	.	(>16fLL 16A/	.	.
16E/	.	.	16g 16c/	.	.
16D/	.	.	16f 16A/	.	.
16C/JJ	.	.	16gJJ 16c/)	.	.
16BB-X/LL	.	.	(>16aLL 16d/	.	.
16C/J	.	.	16g 16e/	.	.
8BB-/J	.	.	16a 16d/	.	.
.	.	.	16gJJ 16e/)	.	.
=76	=76	=76	=76	=76	=76
16F/LL	4FF\	.	(>16fLL 16A/	.	.
16E/J	.	.	16g 16c/	.	.
8F/J	.	.	16f 16A/	.	.
.	.	.	16gJJ 16c/)	.	.
16C/LL	4FF#X\	.	(>16eLL 16A/	.	.
16D/J	.	.	16fn 16c/	.	.
8C/J	.	.	16e 16A/	.	.
.	.	.	16fJJ 16c/)	.	.
=77	=77	=77	=77	=77	=77
4C/	16GG\LL	.	(>16dLL 16G/	.	.
.	16FF#X\J	.	16e 16c/	.	.
.	8GG\J	.	16d 16G/	.	.
.	.	.	16eJJ 16c/)	.	.
16C/LL	4DD\	.	(>16fnLL 16A/	.	.
16D/J	.	.	16e 16c/	.	.
8C/J	.	.	16f 16A/	.	.
.	.	.	16eJJ 16c/)	.	.
=78	=78	=78	=78	=78	=78
4C/	16GG\LL	.	(>16dLL 16G/	.	.
.	16FF#X\J	.	16e 16c/	.	.
.	8GG\J	.	16d 16G/	.	.
.	.	.	16eJJ 16c/)	.	.
16C/LL	4DD\	.	(>16fnLL 16A/	.	.
16D/J	.	.	16e 16c/	.	.
8C/J	.	.	16f 16A/	.	.
.	.	.	16eJJ 16c/)	.	[[
!!LO:PB:g=original
=79	=79	=79	=79	=79	=79
(8C/L	4GG\	.	16dLL 16G/	.	.
!	!	!	!LO:TX:b:i:t=cresc. sempre-:ext=ud:problem:text with extention lines	!	!
.	.	.	16e 16c/	.	<
8BB/J)	.	.	16e 16d/	.	.
.	.	.	16fJJ 16G/	.	.
(8C/L	4GG\	.	16dLL 16G/	.	.
.	.	.	16e 16c/	.	.
8BB/J)	.	.	16e 16d/	.	.
.	.	.	16fJJ 16G/	.	.
=80	=80	=80	=80	=80	=80
(8D/L	4GG\	.	16eLL 16A/	.	.
.	.	.	16f 16d/	.	.
8C/J)	.	.	16f 16e/	.	.
.	.	.	16gJJ 16A/	.	.
(8D/L	4GG\	.	16eLL 16A/	.	.
.	.	.	16f 16d/	.	.
8C/J)	.	.	16f 16e/	.	.
.	.	.	16gJJ 16A/	.	.
=81	=81	=81	=81	=81	=81
(8E/L	4GG\	.	16fLL 16B/	.	.
.	.	.	16g 16e/	.	.
8D/J)	.	.	16g 16f/	.	.
.	.	.	16aJJ 16B/	.	.
(8E/L	4GG\	.	16fLL 16B/	.	.
.	.	.	16g 16e/	.	.
8D/J)	.	.	16g 16f/	.	.
.	.	.	16aJJ 16B/	.	.
=82	=82	=82	=82	=82	=82
(8F/L	4GG\	.	16gLL 16c/	.	.
.	.	.	16a 16f/	.	.
8E/J)	.	.	16a 16g/	.	.
.	.	.	16bJJ 16c/	.	.
(8F/L	4GG\	.	16gLL 16c/	.	.
.	.	.	16a 16f/	.	.
8E/J)	.	.	16a 16g/	.	.
.	.	.	16bJJ 16c/	.	.
!!LO:LB:g=original
=83	=83	=83	=83	=83	=83
(8G/L	4GG\	.	16aLL 16d/	.	.
.	.	.	16b 16g/	.	.
8F#X/J)	.	.	16b 16a/	.	.
.	.	.	16ccJJ 16d/	.	.
(8G/L	4GG\	.	16aLL 16d/	.	.
.	.	.	16b 16g/	.	.
8F#/J)	.	.	16b 16a/	.	[[
.	.	.	16ccJJ 16d/	.	.
=84	=84	=84	=84	=84	=84
!	!	!	!LO:TX:b:i:t=poco rit.:dur=4q:ext=ud:problem:text with extention lines	!	!
(8G/L	4GG\	.	16aLL 16d/	.	.
.	.	.	16b 16g/	.	.
8F#X/J)	.	.	16b 16a/	.	.
.	.	.	16ccJJ 16d/	.	.
(8G/L	4GG\	.	16aLL 16d/	.	.
.	.	.	16b 16g/	.	.
8F#/J)	.	.	16b 16a/	.	.
.	.	.	16ccJJ 16d/	.	.
=85	=85	=85	=85	=85	=85
8rA	4GG 4GGG\	.	(>16aLL 16fnX/	.	ff
.	.	.	16b 16g/	.	.
4e 4E/	.	.	16a 16f/	.	.
.	.	.	16bJJ 16g/	.	.
.	4rEE	.	16aLL 16f/	.	.
.	.	.	16b 16g/	.	.
8d 8D/	.	.	16a 16f/	.	.
.	.	.	16bJJ 16g/	.	.
*v	*v	*	*	*	*
=86	=86	=86	=86	=86
16cLL 16C\	.	16ccLL 16e/	.	.
16BJJ 16BB\	.	16b 16g/	.	.
4A 4AA\	.	16cc 16e/	.	.
.	.	16bJJ 16g/	.	.
.	.	16ccLL 16e/	.	.
.	.	16b 16g/	.	.
8G 8GG/	.	16cc 16e/	.	.
.	.	16bJJ 16g/)	.	.
!!LO:LB:g=original
=87	=87	=87	=87	=87
16ALL 16AA\	.	(>16aLL 16f/	.	.
16BJJ 16BB\	.	16b 16g/	.	.
4e 4E\	.	16a 16f/	.	.
.	.	16bJJ 16g/	.	.
.	.	16aLL 16f/	.	.
.	.	16b 16g/	.	.
8d 8D\	.	16a 16f/	.	.
.	.	16bJJ 16g/	.	.
=88	=88	=88	=88	=88
16cLL 16C\	.	16ccLL 16e/	.	.
16BJJ 16BB\	.	16b 16g/	.	.
4A 4AA\	.	16cc 16e/	.	.
.	.	16bJJ 16g/	.	.
.	.	16ccLL 16e/	.	.
.	.	16b 16g/	.	.
8G 8GG/	.	16cc 16e/	.	.
.	.	16bJJ 16g/)	.	.
=89	=89	=89	=89	=89
8C 8CC/	.	(16ddLL 16b-X\	.	.
.	.	16ee 16cc\	.	.
4a 4A\	.	16dd 16b-\	.	.
.	.	16eeJJ 16cc\	.	.
.	.	16ddLL 16b-\	.	.
.	.	16ee 16cc\	.	.
8g 8G\	.	16dd 16b-\	.	.
.	.	16eeJJ 16cc\	.	.
=90	=90	=90	=90	=90
16fLL 16F\	.	16ffLL 16a\	.	.
16eJJ 16E\	.	16ee 16cc\	.	.
4d 4D\	.	16ff 16a\	.	.
.	.	16eeJJ 16cc\	.	.
.	.	16ffLL 16a\	.	.
.	.	16ee 16cc\	.	.
8c 8C\	.	16ff 16a\	.	.
.	.	16eeJJ 16cc\)	.	.
=91	=91	=91	=91	=91
16dLL 16D\	.	(16ddLL 16b-X\	.	.
16eJJ 16E\	.	16ee 16cc\	.	.
4a 4A\	.	16dd 16b-\	.	.
.	.	16eeJJ 16cc\	.	.
.	.	16ddLL 16b-\	.	.
.	.	16ee 16cc\	.	.
8g 8G\	.	16dd 16b-\	.	.
.	.	16eeJJ 16cc\)	.	.
!!LO:LB:g=original
=92	=92	=92	=92	=92
16fLL 16F\	.	(16ffLL 16a\	.	.
16eJJ 16E\	.	16ee 16cc\	.	.
4d 4D\	.	16ff 16a\	.	.
.	.	16eeJJ 16cc\	.	.
.	.	16ffLL 16a\	.	.
.	.	16ee 16cc\	.	.
8c 8C\	.	16ff 16a\	.	.
.	.	16eeJJ 16cc\)	.	.
=93	=93	=93	=93	=93
*^	*	*	*	*
!	!	!	!	!	!LO:DY:t=sempre %s
16f/LL	2G\	.	16ddLL 16a\	.	f
16g/JJ	.	.	16ee 16cc\	.	.
(4f/	.	.	16dd 16a\	.	.
.	.	.	16eeJJ 16cc\	.	.
.	.	.	16ddLL 16a\	.	.
.	.	.	16ee 16cc\	.	.
8e/)	.	.	16dd 16a\	.	.
.	.	.	16eeJJ 16cc\	.	.
=94	=94	=94	=94	=94	=94
16d/LL	2G\	.	16ffLL 16a\	.	.
16c/JJ	.	.	16ee 16cc\	.	.
(4d/	.	.	16ff 16a\	.	.
.	.	.	16eeJJ 16cc\	.	.
.	.	.	16ffLL 16a\	.	.
.	.	.	16ee 16cc\	.	.
8e/)	.	.	16ff 16a\	.	.
.	.	.	16eeJJ 16cc\	.	.
=95	=95	=95	=95	=95	=95
(16f/LL	8G\	.	16ddLL 16a\	.	.
16g/	.	.	16ee 16cc\	.	.
16f/)	8r	.	16dd 16a\	.	.
16e/JJ	.	.	16eeJJ 16cc\	.	.
16d/LL	8G\	.	16ffLL 16a\	.	.
16c/	.	.	16ee 16cc\	.	.
16d/	8r	.	16ff 16a\	.	.
16e/JJ	.	.	16eeJJ 16cc\	.	.
!!LO:LB:g=original
=96	=96	=96	=96	=96	=96
16f/LL	4G\	.	16ddLL 16a\	.	.
16g/J	.	.	16ee 16cc\	.	.
8f/J	.	.	16dd 16a\	.	.
.	.	.	16eeJJ 16cc\	.	.
8GL 8GG'>/	4ryy	.	16ddLL 16a\	.	.
.	.	.	16ee 16b\	.	.
8GJ 8GG'>/	.	.	16dd 16a\	.	.
.	.	.	16eeJJ 16b\	.	.
=97	=97	=97	=97	=97	=97
16C/LL	2CC\	.	16ccLL 16e/	.	ff
16BB/JJ	.	.	16dd 16g/	.	.
(4AA/	.	.	16cc 16e/	.	.
.	.	.	16ddJJ 16g/	.	.
.	.	.	16ccLL 16e/	.	.
.	.	.	16dd 16g/	.	.
8GG/)	.	.	16cc 16e/	.	.
.	.	.	16ddJJ 16g/	.	.
=98	=98	=98	=98	=98	=98
16f/LL	2G\	.	16eeLL 16a\	.	.
16g/JJ	.	.	16dd 16b\	.	.
(4f/	.	.	16ee 16a\	.	.
.	.	.	16ddJJ 16b\	.	.
.	.	.	16eeLL 16a\	.	.
.	.	.	16dd 16b\	.	.
8g/)	.	.	16ee 16a\	.	.
.	.	.	16ddJJ 16b\	.	.
=99	=99	=99	=99	=99	=99
16C/LL	2CC\	.	16ccLL 16e/	.	.
16BB/JJ	.	.	16dd 16g/	.	.
(4AA/	.	.	16cc 16e/	.	.
.	.	.	16ddJJ 16g/	.	.
.	.	.	16ccLL 16e/	.	.
.	.	.	16dd 16g/	.	.
8GG/)	.	.	16cc 16e/	.	.
.	.	.	16ddJJ 16g/	.	.
!!LO:PB:g=original
=100	=100	=100	=100	=100	=100
16f/LL	2G\	.	16eeLL 16a\	.	.
16g/JJ	.	.	16dd 16b\	.	.
(4f/	.	.	16ee 16a\	.	.
.	.	.	16ddJJ 16b\	.	.
.	.	.	16eeLL 16a\	.	.
.	.	.	16dd 16b\	.	.
8g/)	.	.	16ee 16a\	.	.
.	.	.	16ddJJ 16b\	.	.
=101	=101	=101	=101	=101	=101
4e/	(16A\LL	.	16ccLL 16a\	.	.
.	16G#X\J	.	16dd 16b\	.	.
.	8A\J)	.	16cc 16a\	.	.
.	.	.	16ddJJ 16b\	.	.
(16f/LL	4D\	.	16eeLL 16cc\	.	.
16gn/J	.	.	16dd 16b\	.	.
8f/J)	.	.	16ee 16cc\	.	.
.	.	.	16ddJJ 16b\	.	.
=102	=102	=102	=102	=102	=102
4e/	(16A\LL	.	16ccLL 16a\	.	.
.	16G#X\J	.	16dd 16b\	.	>
.	8A\J)	.	16cc 16a\	.	.
.	.	.	16ddJJ 16b\	.	.
(16f/LL	4D\	.	16eeLL 16cc\	.	.
16gn/J	.	.	16dd 16b\	.	.
8f/J)	.	.	16ee 16cc\	.	.
.	.	.	16ddJJ 16b\	.	.
*v	*v	*	*	*	*
=103	=103	=103	=103	=103
8eL 8A'\	.	16ccLL 16a\	.	.
.	.	16dd 16b\	.	.
8f 8D'\	.	16ee 16cc\	.	.
.	.	16ddJJ 16b\	.	.
8e 8A'\	.	16ccLL 16a\	.	.
.	.	16dd 16b\	.	.
8fJ 8D'\	.	16ee 16cc\	.	.
.	.	16ddJJ 16b\	.	.
!!LO:LB:g=original
=104	=104	=104	=104	=104
8eL 8A'\	.	16ccLL 16a\	.	>
.	.	16dd 16b\	.	.
8f 8D'\	.	16ee 16cc\	.	.
.	.	16ddJJ 16b\	.	.
8e 8A'\	.	16ccLL 16a\	.	.
.	.	16dd 16b\	.	.
8fJ 8D'\	.	16ee 16cc\	.	.
.	.	16ddJJ 16b\	.	.
=105	=105	=105	=105	=105
8eL 8A'\	.	16ccLL 16a\	.	.
.	.	16dd 16b\	.	.
8f#X 8D'\	.	16ee 16cc\	.	]
.	.	16ddJJ 16b\	.	.
8e 8A'\	.	16ccLL 16a\	.	.
.	.	16dd 16b\	.	.
8f#J 8D'\	.	16ee 16cc\	.	.
.	.	16ddJJ 16b\	.	.
=106	=106	=106	=106	=106
8eL 8A'\	.	16ccLL 16a\	.	.
.	.	16dd 16b\	.	.
8f#X 8D'\	.	16ee 16cc\	.	.
.	.	16ddJJ 16b\	.	.
8e 8A'\	.	16ccLL 16a\	.	.
.	.	16dd 16b\	.	.
8f#J 8D'\	.	16ee 16cc\	.	.
.	.	16ddJJ 16b\	.	.
=107	=107	=107	=107	=107
8fnXL 8A 8G'\	.	16eeLL 16cc\	.	pp
.	.	16dd 16b\	.	.
8f 8c 8G'\	.	16cc 16a\	.	.
.	.	16ddJJ 16b\	.	.
8rD	.	16eeLL 16cc\	.	.
.	.	16ff 16dd\	.	.
8fJ 8c 8G'\	.	16gg 16ee\	.	.
.	.	16aaJJ 16ff\	.	.
!!LO:LB:g=original
=108	=108	=108	=108	=108
*	*	*8va	*	*
8fL 8B 8G'\	.	16bbLL 16gg\	.	.
.	.	16ccc 16aa\	.	.
8f 8B 8G'\	.	16ddd 16bb\	.	.
.	.	16eeeJJ 16ccc\	.	.
8rD	.	16fffLL 16ddd\	.	.
.	.	16ggg 16eee\	.	.
8fJ 8B 8G'\	.	16aaa 16fff\	.	.
.	.	16bbbJJ 16ggg\	.	.
=109	=109	=109	=109	=109
8GL 8C'\	.	16ccccLL 16eee\	.	.
.	.	16bbb 16ggg\	.	.
8G 8C'\	.	16cccc 16eee\	.	.
.	.	16bbbJJ 16ggg\	.	.
8r	.	16ccccLL 16eee\	.	.
.	.	16bbb 16ggg\	.	.
8GJ 8C'\	.	16cccc 16eee\	.	.
.	.	16bbbJJ 16ggg\	.	.
=110	=110	=110	=110	=110
8GL 8C'\	.	16ccccLL 16eee\	.	.
.	.	16bbb 16ggg\	.	.
8G 8C'\	.	16cccc 16eee\	.	.
.	.	16bbbJJ 16ggg\	.	.
8r	.	16ccccLL 16eee\	.	.
.	.	16bbb 16ggg\	.	.
8GJ 8C'\	.	16cccc 16eee\	.	.
.	.	16bbbJJ 16ggg\	.	.
=111	=111	=111	=111	=111
16G 16C\	.	16cccc 16eee\	.	.
*	*	*X8va	*	*
16r	.	16r	.	.
16cLL 16G 16E\	.	16ryy	.	.
!	!	!LO:TX:b:i:t=m.d.	!	!
16ryy	.	16B</LL	.	.
16c 16G 16E\	.	16ryy	.	.
16ryy	.	16B</	.	.
16cJJ 16G 16E\	.	16ryy	.	.
16ryy	.	16B</JJ	.	.
!!LO:LB:g=original
=112	=112	=112	=112	=112
16e>LL 16c> 16G\	.	16ryy	.	.
16ryy	.	16d#X/LL	.	.
16e> 16c> 16G\	.	16ryy	.	.
16ryy	.	16d#/	.	.
16e> 16c> 16G\	.	16ryy	.	.
16ryy	.	16d#/	.	.
!	!	!	!	!LO:HP:a:t=poco cresc.
16e>JJ 16c> 16G\	.	16ryy	.	<
16ryy	.	16d#/JJ	.	.
=113	=113	=113	=113	=113
16g>LL 16e> 16c>\	.	16ryy	.	.
16ryy	.	16f#X/LL	.	.
16g> 16e> 16c>\	.	16ryy	.	.
16ryy	.	16f#/	.	.
16g> 16e> 16c>\	.	16ryy	.	.
16ryy	.	16f#/	.	.
16g>JJ 16e> 16c>\	.	16ryy	.	.
16ryy	.	16f#/JJ	.	.
=114	=114	=114	=114	=114
16cc>LL 16g> 16e>\	.	16ryy	.	.
16ryy	.	16b/LL	.	.
16cc> 16g> 16e>\	.	16ryy	.	.
16ryy	.	16b/	.	.
16cc> 16g> 16e>\	.	16ryy	.	.
16ryy	.	16b/	.	.
16cc>JJ 16g> 16e>\	.	16ryy	.	.
16ryy	.	16b/JJ	.	.
=115	=115	=115	=115	=115
16ee>LL 16cc> 16g>\	.	16ryy	.	.
16ryy	.	16dd#X/LL	.	.
16ee>JJ 16cc> 16g>\	.	16ryy	.	.
16ryy	.	16dd#/JJ	.	.
16gg>LL 16ee> 16cc>\	.	16ryy	.	.
16ryy	.	16ff#X/LL	.	.
16gg>JJ 16ee> 16cc>\	.	16ryy	.	>
16ryy	.	16ff#/JJ	.	.
=116	=116	=116	=116	=116
*8va	*	*8va	*	*
16ccc>LL 16gg> 16ee>\	.	16ryy	.	.
16ryy	.	16bb/LL	.	.
16ccc>JJ 16gg> 16ee>\	.	16ryy	.	.
16ryy	.	16bb/JJ	.	.
16eee>LL 16ccc> 16gg>\	.	16ryy	.	.
16ryy	.	16ddd#X/LL	.	.
16eee>JJ 16ccc> 16gg>\	.	16ryy	.	.
16ryy	.	16ddd#/JJ	.	.
!!LO:LB:g=original
=117	=117	=117	=117	=117
16ggg>LL 16eee> 16ccc>\	.	16ryy	.	.
16ryy	.	16fff#X/LL	.	.
16ggg>JJ 16eee> 16ccc>\	.	16ryy	.	.
16ryy	.	16fff#/JJ	.	.
16cccc>LL 16ggg> 16eee>\	.	16ryy	.	<
16ryy	.	16bbb/LL	.	.
16cccc>JJ 16ggg> 16eee>\	.	16ryy	.	.
16ryy	.	16bbb/JJ	.	[[
=118	=118	=118	=118	=118
16cccc>LL 16ggg> 16eee>\	.	16ryy	.	.
16ryy	.	16bbb/LL	.	.
16cccc>JJ 16ggg> 16eee>\	.	16ryy	.	.
16ryy	.	16bbb/JJ	.	.
16cccc>LL 16ggg> 16eee>\	.	16ryy	.	.
16ryy	.	16bbb/LL	.	.
16cccc>JJ 16ggg> 16eee>\	.	16ryy	.	.
16ryy	.	16bbb/JJ	.	.
=119	=119	=119	=119	=119
16cccc>LL 16ggg> 16eee>\	.	16ryy	.	>
16ryy	.	16bbb/LL	.	.
16cccc>JJ 16ggg> 16eee>\	.	16ryy	.	.
16ryy	.	16bbb/JJ	.	.
16cccc>LL 16ggg> 16eee>\	.	16ryy	.	.
16ryy	.	16bbb/LL	.	.
16cccc>JJ 16ggg> 16eee>\	.	16ryy	.	]]
*X8va	*	*	*	*
16ryy	.	16bbb/JJ	.	.
=120	=120	=120	=120	=120
8ryy	.	8cccc 8ggg 8eee\	.	pp
*	*	*X8va	*	*
8r	.	8r	.	.
4r	.	4r	.	.
=121	=121	=121	=121	=121
*^	*	*^	*	*
!!LO:TX:a:i:t=poco allarg.
4r	16AALL 16AAA\	.	4r	16A\LL	.	ff
.	16BBJJ 16BBB\	.	.	16B\JJ	.	.
.	4E 4EE\	.	.	4e\	.	.
4f 4B 4G/	.	.	4gg 4ff 4b 4g/	.	.	.
.	8D 8DD\	.	.	8d\	.	.
*v	*v	*	*	*	*	*
*	*	*v	*v	*	*
=122	=122	=122	=122	=122
*ped	*	*	*	*
8C 8CC/	.	8c/	.	.
4.g 4.e 4.c 4.G\	.	4.ccc 4.gg 4.ee 4.cc\	.	.
*Xped	*	*	*	*
==	==	==	==	==
*-	*-	*-	*-	*-
!!!system-decoration: {(g1)}
!!!RDF**kern: i = editorial accidental
!!!RDF**kern: > = above
!!!RDF**kern: < = below
!!!RDF**kern: N = linked
!!!RDF**dynam: > = "dim.", fontstyle= "italic"
!!!ENC: Filip Voros
!!!EED: Katarzyna Serwa
!!!END: 2023-10-17
!!!EEV: 2023-11-04
